svg/fluentui-system-icons/ic_fluent_glance_12_filled.svg

<svg width="12" height="12" viewBox="0 0 12 12" fill="none" xmlns="http://www.w3.org/2000/svg">
<path d="M6 9.5C6 10.3284 6.67157 11 7.5 11H9.5C10.3284 11 11 10.3284 11 9.5V6.5C11 5.67157 10.3284 5 9.5 5H7.5C6.67157 5 6 5.67157 6 6.5V9.5ZM1 5.5C1 6.32843 1.67157 7 2.5 7H3.5C4.32843 7 5 6.32843 5 5.5V2.5C5 1.67157 4.32843 1 3.5 1H2.5C1.67157 1 1 1.67157 1 2.5V5.5ZM7.5 4C6.67157 4 6 3.32843 6 2.5C6 1.67157 6.67157 1 7.5 1H9.5C10.3284 1 11 1.67157 11 2.5C11 3.32843 10.3284 4 9.5 4H7.5ZM1 9.5C1 10.3284 1.67157 11 2.5 11H3.5C4.32843 11 5 10.3284 5 9.5C5 8.67157 4.32843 8 3.5 8H2.5C1.67157 8 1 8.67157 1 9.5Z" fill="#212121"/>
</svg>

<svg xmlns="http://www.w3.org/2000/svg" width="12" height="12"><path d="M6 9.5A1.5 1.5 0 0 0 7.5 11h2A1.5 1.5 0 0 0 11 9.5v-3A1.5 1.5 0 0 0 9.5 5h-2A1.5 1.5 0 0 0 6 6.5v3Zm-5-4A1.5 1.5 0 0 0 2.5 7h1A1.5 1.5 0 0 0 5 5.5v-3A1.5 1.5 0 0 0 3.5 1h-1A1.5 1.5 0 0 0 1 2.5v3ZM7.5 4a1.5 1.5 0 1 1 0-3h2a1.5 1.5 0 0 1 0 3h-2ZM1 9.5A1.5 1.5 0 0 0 2.5 11h1a1.5 1.5 0 0 0 0-3h-1A1.5 1.5 0 0 0 1 9.5Z"/></svg>
